X:168110
T:Glendaruel Highlanders
C:Pipe Major A Fettes (Pub 1988)
B: 
H:
O:Kevin Fraser
Z:Kevin Fraser
Q:3/8=90
K:HP
M:6/8
L:1/8
R:March
U: R = ///
U: r = //
U: V = !accent!
V:M gstem=up stem=down name="Melody"
V:H gstem=up stem=down name="Harmony"
V:C gstem=up stem=down name="C-Harmony"
V:S gstem=up stem=down dyn=up stafflines=1 clef=perc middle=G name="Snare" sname="Snare"
V:S gstem=up stem=down dyn=up stafflines=1 clef=perc middle=G name="Snare" sname="Snare"
V:B gstem=up stem=down clef=none dyn=up name="Bass"
V:T gstem=up stem=down clef=none dyn=up name="Tenor"
V:BB gstem=up stem=down name="Brass Bass" sname="ABCD-C" transpose=-1  octave=-1 clef=bass
V:BC gstem=up stem=down name="Brass Chord" sname="ABCD-D" transpose=-1
V:BD gstem=up stem=down name="Brass Chord 2" sname="ABCD-B" transpose=-1
V:P gstem=up stem=down name="Piano" octave=-1
I:MIDI=program 110
%%MIDI gracedivider 4
% %score {M H}
%%MIDI program 109 #bagpipes
%%MIDI vol 100
%%landscape off
[V:M]|: e    | "A"A2{GdGe}A {g}A>B{GdG}c   | "A"{g}e2{GdG}e "D"{gfg}f2e | "A"{gcd}c>B{e}A "D"{g}f<af | "E7"{gef}e3 {A}e>fa | 
[V:M]        | "A"A2{GdGe}A {g}A>B{GdG}c   | "A"{g}e2{GdG}e "D"{gfg}f2e | "F#m"{g}f<ac "E7"{gef}e>dB| "A"{g}A3 "(E7)"{GAG}A2 :|
[V:M]|:e/<d/  | "A"{gcd}c2{e}A "E7"{g}c<eB  | "A"{gcd}c2{e}A {GAG}A>{g}ce  | "D"{gfg}f2{AGAG}A {g}f<af  | "E7"{gef}e3 {A}e>{g}fa | 
[V:M]        [1 "A"{gcd}c2{e}A "E7"{g}c<eB | "A"{gcd}c2{e}A {GAG}A>{g}ce  | "F#m"{g}f>ec "E7"{gef}e>dB | "A"{g}A3 "(E7)"{GAG}A2 :|
[V:M][2 {gf}g | a>c{G}c {g}c>fe            | "Bm"{g}f>B{G}B {g}B>fe       | "F#m"{g}f<ac "E7"{gef}e>dB | "A"{g}A3 "(E7)"{GAG}A2 ||
[V:M]|:  B   |{GdG}c3  {gef}e>c{d}B        | {g}A>B{GdG}c {gef}e2c        | {GdG}f3 a>gf               | {gef}e3 {A}e>{g}fa  |
[V:M]	|{GdG}c3  {gef}e>c{d}B        | {g}A>B{GdG}c {gef}e2{gf}g        | "F#m"{g}f>ac "E7"{gef}e>d{e}B | "A"{g}A3 "(E7)"{GAG}A2 :|
[V:M]|: {gf}g| {ag}a3 {fg}f>e{g}c          | {g}A>B{GdG}c {gef}e2c        | {GdG}f3 {gef}e>dc          | {g}B3 {GdGe}B2 |
[V:M][1{gf}g     | {ag}a3 {fg}f>e{g}c        | {g}A>B{GdG}c {gef}e2{gf}g    | "F#m"{a}f<ac "E7"{gef}e>dB | "A"{g}A3 "(E7)"{GAG}A2:|
[V:M][2{gef}e/<d/| {g}c<ec {gde}d>cB        | {g}A>B{GdG}c {gef}e2{gf}g    | "F#m"{a}f<ac "E7"{gef}e>dB | "A"{g}A3 "(E7)"{GAG}A2 |]


